dist/assets/images/icons/otr/ico-slide-10-h.svg

<svg width="53" height="53" viewBox="0 0 53 53" fill="none" xmlns="http://www.w3.org/2000/svg">
<circle cx="26.5" cy="26.5" r="26.5" fill="transparent"/>
<path d="M28.7976 30.9645L28.1798 30.2585C31.0039 27.7874 29.9449 24.0809 29.3271 22.4923L27.6503 25.4929L25.444 19.8448C23.0613 22.6688 21.914 25.2281 22.267 27.2579C22.62 29.1994 24.1203 29.9937 24.2085 30.082L23.7673 30.8762C23.679 30.8762 21.8257 29.8172 21.3845 27.4344C20.9432 24.9634 22.267 22.0511 25.1793 18.6975L25.6205 18.168L27.6503 23.4631L29.2388 20.6391L29.5918 21.3451C29.8566 21.4333 32.9454 27.3462 28.7976 30.9645Z" fill="#fff" stroke="#fff" stroke-width="0.4"/>
<path d="M16.5306 31.5822H10V25.0516H16.5306V31.5822ZM10.8825 30.6997H15.6481V25.9341H10.8825V30.6997Z" fill="#fff" stroke="#fff" stroke-width="0.4"/>
<path d="M43.0052 31.5822H36.4746V25.0516H43.0052V31.5822ZM37.3571 30.6997H42.1227V25.9341H37.3571V30.6997Z" fill="#fff" stroke="#fff" stroke-width="0.4"/>
<path d="M16.5306 39.5249H10V32.9943H16.5306V39.5249ZM10.8825 38.6423H15.6481V33.8768H10.8825V38.6423Z" fill="#fff" stroke="#fff" stroke-width="0.4"/>
<path d="M25.3558 39.5249H18.8252V32.9943H25.3558V39.5249ZM19.7077 38.6423H24.4733V33.8768H19.7077V38.6423Z" fill="#fff" stroke="#fff" stroke-width="0.4"/>
<path d="M34.181 39.5249H27.6504V32.9943H34.181V39.5249ZM28.5329 38.6423H33.2985V33.8768H28.5329V38.6423Z" fill="#fff" stroke="#fff" stroke-width="0.4"/>
<path d="M43.0052 39.5249H36.4746V32.9943H43.0052V39.5249ZM37.3571 38.6423H42.1227V33.8768H37.3571V38.6423Z" fill="#fff" stroke="#fff" stroke-width="0.4"/>
<path d="M16.7946 23.4632H10.1758L10.264 22.9336C10.3523 22.3159 10.5288 21.7864 10.617 21.2569C10.7053 20.8156 10.8818 20.4626 10.97 20.1096C11.4113 18.7858 12.1173 17.4621 12.9116 16.3148L13.1763 15.9618L18.3832 19.7566L18.1184 20.1096C17.5006 20.9921 17.0594 21.9629 16.7946 23.1101V23.4632ZM11.1465 22.5806H16.0886C16.3534 21.6099 16.7064 20.7274 17.2359 19.9331L13.3528 17.1091C12.7351 18.0798 12.2056 19.2271 11.7643 20.3744C11.6761 20.7274 11.4996 21.0804 11.4113 21.5216C11.323 21.7864 11.2348 22.1394 11.1465 22.5806Z" fill="#fff" stroke="#fff" stroke-width="0.4"/>
<path d="M19.178 18.6975L18.6485 18.168L14.3242 14.1967L14.6772 13.8437C16.2657 12.2552 18.6485 10.8431 20.6783 10.0489L21.2078 9.87238L23.0611 16.05L22.7081 16.2265C21.5608 16.756 20.5018 17.462 19.531 18.3445L19.178 18.6975ZM15.648 14.1967L19.178 17.462C19.9723 16.6677 20.9431 16.05 21.9138 15.6087L20.5901 11.0196C18.9133 11.7257 17.06 12.8729 15.648 14.1967Z" fill="#fff" stroke="#fff" stroke-width="0.4"/>
<path d="M34.0048 18.6975L33.6518 18.3445C32.7692 17.462 31.7102 16.6677 30.4747 16.2265L30.21 16.05L32.0632 9.87238L32.5045 10.0489C34.6225 10.8431 36.9171 12.2552 38.5056 13.8437L38.8586 14.1967L34.0048 18.6975ZM31.269 15.5205C32.2397 15.9617 33.2105 16.5795 34.0048 17.3737L37.5348 14.1084C36.1228 12.8729 34.3578 11.7257 32.5927 11.0196L31.269 15.5205Z" fill="#fff" stroke="#fff" stroke-width="0.4"/>
<path d="M24.1203 15.697L22.8848 9.43115L23.326 9.3429C25.4441 8.90164 27.6503 8.90164 29.7684 9.25464L30.2096 9.3429L28.9741 15.6087L28.5328 15.5205C27.2091 15.2557 25.7971 15.2557 24.4733 15.6087L24.1203 15.697ZM23.9438 10.1372L24.8263 14.7262C25.9736 14.5497 27.2091 14.4615 28.3563 14.638L29.2389 10.0489C27.4738 9.78415 25.6206 9.78415 23.9438 10.1372Z" fill="#fff" stroke="#fff" stroke-width="0.4"/>
<path d="M43.0066 23.4631H36.3877L36.2112 23.1101C35.9465 22.0511 35.5052 20.9921 34.8874 20.0213L34.7109 19.6683L39.9178 15.8735L40.1825 16.2265C41.5945 18.2563 42.4771 20.4626 42.8301 22.9336L43.0066 23.4631ZM37.0055 22.5806H41.9475C41.5945 20.6391 40.8003 18.7858 39.7413 17.1091L35.9465 19.9331C36.3877 20.7274 36.7407 21.6099 37.0055 22.5806Z" fill="#fff" stroke="#fff" stroke-width="0.4"/>
</svg>

<svg width="53" height="53" fill="none" xmlns="http://www.w3.org/2000/svg"><circle cx="26.5" cy="26.5" r="26.5" fill="transparent"/><path d="M28.798 30.965l-.618-.706c2.824-2.472 1.765-6.178 1.147-7.767l-1.677 3-2.206-5.647c-2.383 2.824-3.53 5.383-3.177 7.413.353 1.941 1.853 2.736 1.942 2.824l-.442.794c-.088 0-1.941-1.059-2.383-3.442-.44-2.47.883-5.383 3.795-8.736l.442-.53 2.03 5.295 1.588-2.824.353.706c.265.088 3.353 6.001-.794 9.62zm-12.268.617H10v-6.53h6.53v6.53zm-5.648-.882h4.766v-4.766h-4.765V30.7zm32.123.882h-6.53v-6.53h6.53v6.53zm-5.648-.882h4.766v-4.766h-4.766V30.7zM16.53 39.525H10v-6.53h6.53v6.53zm-5.648-.883h4.766v-4.765h-4.765v4.765zm14.474.883h-6.53v-6.53h6.53v6.53zm-5.648-.883h4.765v-4.765h-4.765v4.765zm14.473.883h-6.53v-6.53h6.53v6.53zm-5.648-.883h4.765v-4.765h-4.765v4.765zm14.472.883h-6.53v-6.53h6.53v6.53zm-5.648-.883h4.766v-4.765h-4.766v4.765zM16.795 23.463h-6.62l.089-.53c.088-.617.265-1.147.353-1.676.088-.441.265-.794.353-1.147.441-1.324 1.147-2.648 1.942-3.795l.264-.353 5.207 3.795-.265.353a8.418 8.418 0 00-1.323 3v.353zm-5.649-.882h4.943c.264-.971.617-1.854 1.147-2.648l-3.883-2.824c-.618.97-1.147 2.118-1.589 3.265-.088.353-.264.706-.353 1.148a9.162 9.162 0 00-.264 1.059zm8.032-3.883l-.53-.53-4.324-3.971.353-.353c1.589-1.589 3.971-3 6.001-3.795l.53-.177 1.853 6.178-.353.177a12.482 12.482 0 00-3.177 2.117l-.353.354zm-3.53-4.501l3.53 3.265c.794-.794 1.765-1.412 2.736-1.853l-1.324-4.59c-1.677.707-3.53 1.854-4.942 3.178zm18.357 4.501l-.353-.354c-.883-.882-1.942-1.676-3.177-2.117l-.265-.177 1.853-6.178.441.177c2.119.794 4.413 2.206 6.002 3.795l.353.353-4.854 4.5zm-2.736-3.178c.97.442 1.942 1.06 2.736 1.854l3.53-3.266c-1.412-1.235-3.177-2.382-4.942-3.088l-1.324 4.5zm-7.149.177l-1.235-6.266.441-.088c2.118-.441 4.324-.441 6.442-.088l.442.088-1.236 6.266-.441-.088c-1.324-.265-2.736-.265-4.06.088l-.353.088zm-.176-5.56l.882 4.59c1.148-.177 2.383-.266 3.53-.089l.883-4.59c-1.765-.264-3.618-.264-5.295.09zm19.063 13.326h-6.62l-.176-.353a10.543 10.543 0 00-1.324-3.089l-.176-.353 5.207-3.794.264.353a15.325 15.325 0 012.648 6.707l.177.53zm-6.002-.882h4.942c-.353-1.942-1.147-3.795-2.206-5.472l-3.794 2.824c.44.794.794 1.677 1.058 2.648z" fill="#fff" stroke="#fff" stroke-width=".4"/></svg>
